X:5170
T:Fermoy Lasses
M:C
L:1/8
K:E Minor
GEE2 BEE2|GEE2 BcBA|GEE2 BEE2|AFDF AcBA|!
GEE2 BEE2|GEE2 BcBA|G2GF GBdB|AFDF AcBA|]!
G2BG dGBG|G2Bd efg2|G2BG dGBG|AFDF AcBA|!
G2BG dGBG|G2Bd efg2|afge dedB|AFDF AcBA|]!
